assets/food_15.svg

<svg viewBox="0 0 47.7089 24.404" xmlns="http://www.w3.org/2000/svg"><circle cx="15.1834" cy="14.658" fill="#683391" r="3.1095" stroke="#3a3939" stroke-miterlimit="10" stroke-width="1.5"/><circle cx="9.2021" cy="12.2114" fill="#8749b2" r="3.1095" stroke="#3a3939" stroke-miterlimit="10" stroke-width="1.5"/><circle cx="9.2361" cy="16.4834" fill="#8749b2" r="3.1095" stroke="#3a3939" stroke-miterlimit="10" stroke-width="1.5"/><path d="m12.1755 9.7577s-6.3637-6.1912-8.3644-6.7219c0 0 1.4566-1.8943 2.4054-2.225s.7766.84 1.5315 1.7442 4.6748 5.5768 5.2978 6.0192z" fill="#93603e"/><path d="m12.1756 10.5079a.7466.7466 0 0 1 -.5229-.2128c-2.4063-2.3409-6.7154-6.1846-8.0342-6.5351a.75.75 0 0 1 -.4019-1.1816 8.5561 8.5561 0 0 1 2.7534-2.4757c1.27-.4434 1.7164.664 1.9073 1.1357a3.0859 3.0859 0 0 0 .4463.836c2.1885 2.621 4.74 5.5771 5.1582 5.89a.7648.7648 0 0 1 .1682 1.0543l-.87 1.1836a.75.75 0 0 1 -.5425.3027c-.0209.002-.0414.0029-.0619.0029zm-7.1645-7.7353a48.1562 48.1562 0 0 1 6.5489 5.3633c-1.3032-1.4239-3.3613-3.87-4.3882-5.1006a4.4483 4.4483 0 0 1 -.6846-1.2324c-.0307-.0752-.0673-.166-.101-.2412a6.1152 6.1152 0 0 0 -1.3751 1.2109z" fill="#3a3939"/><path d="m7.669 6.08s-2.1616-.9086-4.92 1.4712c-.2707.2327-1.999 1.5188-1.999 1.5188a3.5724 3.5724 0 0 0 4.132.4224 4.4948 4.4948 0 0 0 2.787-3.4124z" fill="#34b743"/><path d="m3.0868 10.7033a4.2375 4.2375 0 0 1 -2.8628-1.1.7492.7492 0 0 1 .0786-1.1354c.6596-.4912 1.7744-1.3279 1.9565-1.4844 3.0742-2.6533 5.5943-1.64 5.7-1.5957a.7506.7506 0 0 1 .4517.8 5.2361 5.2361 0 0 1 -3.1841 3.9707 4.6166 4.6166 0 0 1 -2.1399.5448zm-1.0118-1.6885a2.8841 2.8841 0 0 0 2.4615-.1885 4.147 4.147 0 0 0 2.2177-2.1663 5.03 5.03 0 0 0 -3.5156 1.458c-.1523.132-.6807.5335-1.1636.8968z" fill="#3a3939"/><g stroke="#3a3939" stroke-miterlimit="10" stroke-width="1.5"><circle cx="23.0968" cy="12.8404" fill="#683391" r="3.1095"/><circle cx="14.7358" cy="9.1479" fill="#8749b2" r="3.1095"/><circle cx="14.7058" cy="4.5112" fill="#ab63d6" r="3.1095"/><circle cx="26.2064" cy="12.8404" fill="#8749b2" r="3.1095"/><circle cx="19.9872" cy="10.9513" fill="#8749b2" r="3.1095"/><circle cx="20.6121" cy="4.8035" fill="#ab63d6" r="3.1095"/><circle cx="23.7189" cy="7.6689" fill="#ab63d6" r="3.1095"/><circle cx="19.2096" cy="15.0986" fill="#8749b2" r="3.1095"/><circle cx="13.9914" cy="19.593" fill="#8749b2" r="3.1095"/><circle cx="20.3848" cy="20.3921" fill="#8749b2" r="3.1095"/><circle cx="25.3686" cy="16.4834" fill="#8749b2" r="3.1095"/><circle cx="29.6275" cy="8.3642" fill="#ab63d6" r="3.1095"/><circle cx="32.2459" cy="14.1638" fill="#8749b2" r="3.1095"/><circle cx="26.9009" cy="20.5445" fill="#8749b2" r="3.1095"/><circle cx="31.5334" cy="18.8517" fill="#8749b2" r="3.1095"/><circle cx="37.8924" cy="17.7676" fill="#8749b2" r="3.1095"/><circle cx="35.5309" cy="10.9513" fill="#ab63d6" r="3.1095"/><circle cx="40.5287" cy="14.2258" fill="#ab63d6" r="3.1095"/><circle cx="43.8493" cy="18.401" fill="#ab63d6" r="3.1095"/></g><path d="m13.489 3.32a1.9657 1.9657 0 0 1 2.4337 0" fill="#ab63d6"/><path d="m15.9227 3.57a.25.25 0 0 1 -.1538-.0527 1.7078 1.7078 0 0 0 -2.1221-.0039.25.25 0 0 1 -.3164-.3867 2.1978 2.1978 0 0 1 2.7461-.0039.25.25 0 0 1 -.1538.4472z" fill="#3a3939"/><path d="m19.3673 3.6578a1.9656 1.9656 0 0 1 2.4338 0" fill="#ab63d6"/><path d="m21.8011 3.9074a.2506.2506 0 0 1 -.1538-.0528 1.6942 1.6942 0 0 0 -2.1211-.0039.25.25 0 0 1 -.3174-.3867 2.1992 2.1992 0 0 1 2.7461-.004.25.25 0 0 1 -.1538.4473z" fill="#3a3939"/><path d="m23.0357 6.1222a1.9657 1.9657 0 0 1 2.2718.873" fill="#ab63d6"/><path d="m25.3075 7.2453a.2492.2492 0 0 1 -.2144-.1211 1.6927 1.6927 0 0 0 -1.979-.7647.25.25 0 1 1 -.1572-.4746 2.1951 2.1951 0 0 1 2.5649.9814.25.25 0 0 1 -.0859.3438.255.255 0 0 1 -.1284.0352z" fill="#3a3939"/><path d="m29.2791 6.6819a1.9655 1.9655 0 0 1 1.9977 1.39" fill="#ab63d6"/><path d="m31.2767 8.3214a.2507.2507 0 0 1 -.2388-.1758 1.7088 1.7088 0 0 0 -1.74-1.2148.2458.2458 0 0 1 -.2679-.2308.25.25 0 0 1 .229-.2675 2.1877 2.1877 0 0 1 2.2564 1.5644.25.25 0 0 1 -.1651.3135.276.276 0 0 1 -.0736.011z" fill="#3a3939"/><path d="m35.2518 9.2553a1.9656 1.9656 0 0 1 1.9682 1.4321" fill="#ab63d6"/><path d="m37.22 10.9376a.25.25 0 0 1 -.24-.1816 1.6986 1.6986 0 0 0 -1.7138-1.251.2579.2579 0 0 1 -.2627-.2363.25.25 0 0 1 .2343-.2637 2.219 2.219 0 0 1 2.2222 1.6143.25.25 0 0 1 -.1714.3086.2427.2427 0 0 1 -.0686.0097z" fill="#3a3939"/><path d="m40.18 12.5128a1.9656 1.9656 0 0 1 2.0241 1.3513" fill="#ab63d6"/><path d="m42.2044 14.1144a.25.25 0 0 1 -.2373-.1719 1.708 1.708 0 0 0 -1.7632-1.1806.2455.2455 0 0 1 -.2724-.2256.25.25 0 0 1 .2241-.2725 2.2042 2.2042 0 0 1 2.2861 1.5225.2493.2493 0 0 1 -.1591.3154.2424.2424 0 0 1 -.0782.0127z" fill="#3a3939"/><path d="m43.4736 16.7514a1.9655 1.9655 0 0 1 2.0545 1.3045" fill="#ab63d6"/><path d="m45.5282 18.3058a.2489.2489 0 0 1 -.2354-.166 1.7079 1.7079 0 0 0 -1.79-1.1406.2577.2577 0 0 1 -.2774-.2188.25.25 0 0 1 .2178-.2773 2.1986 2.1986 0 0 1 2.32 1.4687.25.25 0 0 1 -.1514.3194.2547.2547 0 0 1 -.0836.0146z" fill="#3a3939"/></svg>

<svg xmlns="http://www.w3.org/2000/svg" viewBox="0 0 47.7089 24.404"><defs><style>.cls-1{fill:#683391;}.cls-1,.cls-2,.cls-6{stroke:#3a3939;stroke-miterlimit:10;stroke-width:1.5px;}.cls-2{fill:#8749b2;}.cls-3{fill:#93603e;}.cls-4{fill:#3a3939;}.cls-5{fill:#34b743;}.cls-6,.cls-7{fill:#ab63d6;}</style></defs><title>Asset 143</title><g id="Layer_2" data-name="Layer 2"><g id="Layer_3" data-name="Layer 3"><circle class="cls-1" cx="15.1834" cy="14.658" r="3.1095"/><circle class="cls-2" cx="9.2021" cy="12.2114" r="3.1095"/><circle class="cls-2" cx="9.2361" cy="16.4834" r="3.1095"/><path class="cls-3" d="M12.1755,9.7577S5.8118,3.5665,3.8111,3.0358c0,0,1.4566-1.8943,2.4054-2.225s.7766.84,1.5315,1.7442,4.6748,5.5768,5.2978,6.0192Z"/><path class="cls-4" d="M12.1756,10.5079a.7466.7466,0,0,1-.5229-.2128C9.2464,7.9542,4.9373,4.1105,3.6185,3.76a.75.75,0,0,1-.4019-1.1816A8.5561,8.5561,0,0,1,5.97.1027C7.24-.3407,7.6864.7667,7.8773,1.2384a3.0859,3.0859,0,0,0,.4463.836c2.1885,2.621,4.74,5.5771,5.1582,5.89A.7648.7648,0,0,1,13.65,9.0187l-.87,1.1836a.75.75,0,0,1-.5425.3027C12.2166,10.507,12.1961,10.5079,12.1756,10.5079ZM5.0111,2.7726A48.1562,48.1562,0,0,1,11.56,8.1359c-1.3032-1.4239-3.3613-3.87-4.3882-5.1006a4.4483,4.4483,0,0,1-.6846-1.2324c-.0307-.0752-.0673-.166-.101-.2412A6.1152,6.1152,0,0,0,5.0111,2.7726Z"/><path class="cls-5" d="M7.669,6.08s-2.1616-.9086-4.92,1.4712C2.4783,7.7839.75,9.07.75,9.07a3.5724,3.5724,0,0,0,4.132.4224A4.4948,4.4948,0,0,0,7.669,6.08Z"/><path class="cls-4" d="M3.0868,10.7033a4.2375,4.2375,0,0,1-2.8628-1.1A.7492.7492,0,0,1,.3026,8.4679C.9622,7.9767,2.077,7.14,2.2591,6.9835c3.0742-2.6533,5.5943-1.64,5.7-1.5957a.7506.7506,0,0,1,.4517.8,5.2361,5.2361,0,0,1-3.1841,3.9707A4.6166,4.6166,0,0,1,3.0868,10.7033ZM2.075,9.0148a2.8841,2.8841,0,0,0,2.4615-.1885A4.147,4.147,0,0,0,6.7542,6.66a5.03,5.03,0,0,0-3.5156,1.458C3.0863,8.25,2.5579,8.6515,2.075,9.0148Z"/><circle class="cls-1" cx="23.0968" cy="12.8404" r="3.1095"/><circle class="cls-2" cx="14.7358" cy="9.1479" r="3.1095"/><circle class="cls-6" cx="14.7058" cy="4.5112" r="3.1095"/><circle class="cls-2" cx="26.2064" cy="12.8404" r="3.1095"/><circle class="cls-2" cx="19.9872" cy="10.9513" r="3.1095"/><circle class="cls-6" cx="20.6121" cy="4.8035" r="3.1095"/><circle class="cls-6" cx="23.7189" cy="7.6689" r="3.1095"/><circle class="cls-2" cx="19.2096" cy="15.0986" r="3.1095"/><circle class="cls-2" cx="13.9914" cy="19.593" r="3.1095"/><circle class="cls-2" cx="20.3848" cy="20.3921" r="3.1095"/><circle class="cls-2" cx="25.3686" cy="16.4834" r="3.1095"/><circle class="cls-6" cx="29.6275" cy="8.3642" r="3.1095"/><circle class="cls-2" cx="32.2459" cy="14.1638" r="3.1095"/><circle class="cls-2" cx="26.9009" cy="20.5445" r="3.1095"/><circle class="cls-2" cx="31.5334" cy="18.8517" r="3.1095"/><circle class="cls-2" cx="37.8924" cy="17.7676" r="3.1095"/><circle class="cls-6" cx="35.5309" cy="10.9513" r="3.1095"/><circle class="cls-6" cx="40.5287" cy="14.2258" r="3.1095"/><circle class="cls-6" cx="43.8493" cy="18.401" r="3.1095"/><path class="cls-7" d="M13.489,3.32a1.9657,1.9657,0,0,1,2.4337,0"/><path class="cls-4" d="M15.9227,3.57a.25.25,0,0,1-.1538-.0527,1.7078,1.7078,0,0,0-2.1221-.0039.25.25,0,0,1-.3164-.3867,2.1978,2.1978,0,0,1,2.7461-.0039.25.25,0,0,1-.1538.4472Z"/><path class="cls-7" d="M19.3673,3.6578a1.9656,1.9656,0,0,1,2.4338,0"/><path class="cls-4" d="M21.8011,3.9074a.2506.2506,0,0,1-.1538-.0528,1.6942,1.6942,0,0,0-2.1211-.0039.25.25,0,0,1-.3174-.3867A2.1992,2.1992,0,0,1,21.9549,3.46a.25.25,0,0,1-.1538.4473Z"/><path class="cls-7" d="M23.0357,6.1222a1.9657,1.9657,0,0,1,2.2718.873"/><path class="cls-4" d="M25.3075,7.2453a.2492.2492,0,0,1-.2144-.1211,1.6927,1.6927,0,0,0-1.979-.7647.25.25,0,1,1-.1572-.4746,2.1951,2.1951,0,0,1,2.5649.9814.25.25,0,0,1-.0859.3438A.255.255,0,0,1,25.3075,7.2453Z"/><path class="cls-7" d="M29.2791,6.6819a1.9655,1.9655,0,0,1,1.9977,1.39"/><path class="cls-4" d="M31.2767,8.3214a.2507.2507,0,0,1-.2388-.1758,1.7088,1.7088,0,0,0-1.74-1.2148A.2458.2458,0,0,1,29.03,6.7a.25.25,0,0,1,.229-.2675,2.1877,2.1877,0,0,1,2.2564,1.5644.25.25,0,0,1-.1651.3135A.276.276,0,0,1,31.2767,8.3214Z"/><path class="cls-7" d="M35.2518,9.2553A1.9656,1.9656,0,0,1,37.22,10.6874"/><path class="cls-4" d="M37.22,10.9376a.25.25,0,0,1-.24-.1816,1.6986,1.6986,0,0,0-1.7138-1.251.2579.2579,0,0,1-.2627-.2363.25.25,0,0,1,.2343-.2637A2.219,2.219,0,0,1,37.46,10.6193a.25.25,0,0,1-.1714.3086A.2427.2427,0,0,1,37.22,10.9376Z"/><path class="cls-7" d="M40.18,12.5128a1.9656,1.9656,0,0,1,2.0241,1.3513"/><path class="cls-4" d="M42.2044,14.1144a.25.25,0,0,1-.2373-.1719,1.708,1.708,0,0,0-1.7632-1.1806.2455.2455,0,0,1-.2724-.2256.25.25,0,0,1,.2241-.2725,2.2042,2.2042,0,0,1,2.2861,1.5225.2493.2493,0,0,1-.1591.3154A.2424.2424,0,0,1,42.2044,14.1144Z"/><path class="cls-7" d="M43.4736,16.7514a1.9655,1.9655,0,0,1,2.0545,1.3045"/><path class="cls-4" d="M45.5282,18.3058a.2489.2489,0,0,1-.2354-.166,1.7079,1.7079,0,0,0-1.79-1.1406.2577.2577,0,0,1-.2774-.2188.25.25,0,0,1,.2178-.2773,2.1986,2.1986,0,0,1,2.32,1.4687.25.25,0,0,1-.1514.3194A.2547.2547,0,0,1,45.5282,18.3058Z"/></g></g></svg>
